src/assets/icons/back.svg

<?xml version="1.0" encoding="UTF-8"?>
<svg width="24px" height="24px" viewBox="0 0 24 24" version="1.1" xmlns="http://www.w3.org/2000/svg" xmlns:xlink="http://www.w3.org/1999/xlink">
    <title>返回</title>
    <g id="扩展程序" stroke="none" stroke-width="1" fill="none" fill-rule="evenodd">
        <g id="历史记录" transform="translate(-20.000000, -20.000000)" fill="#6E7585" fill-rule="nonzero">
            <g id="编组" transform="translate(20.000000, 20.000000)">
                <path d="M10.7781746,4.22182541 C11.1686989,4.6123497 11.1686989,5.24551468 10.7781746,5.63603897 L5.414,10.9999322 L17,11 C17.5522847,11 18,11.4477153 18,12 C18,12.5522847 17.5522847,13 17,13 L5.414,12.9999322 L10.7781746,18.363961 C11.1686989,18.7544853 11.1686989,19.3876503 10.7781746,19.7781746 C10.3876503,20.1686989 9.75448532,20.1686989 9.36396103,19.7781746 L2.29289322,12.7071068 L2.21968877,12.625449 C2.2173721,12.6225624 2.21507113,12.6196628 2.21278596,12.6167501 L2.29289322,12.7071068 C2.25749917,12.6717127 2.22531295,12.6343256 2.19633458,12.5953066 C2.17849009,12.5711307 2.1617187,12.546275 2.14606743,12.5206602 C2.13776267,12.507231 2.12987808,12.4936005 2.12234168,12.4798302 C2.1131069,12.4628463 2.1040443,12.4450905 2.09550623,12.4270381 C2.08591191,12.4067675 2.07731015,12.386835 2.06938695,12.3666974 C2.06244532,12.3491486 2.0559003,12.3310532 2.04987089,12.3127238 C2.04489522,12.2974042 2.04017413,12.2817412 2.03584514,12.265993 C2.02983363,12.2444365 2.0246398,12.2227461 2.02016515,12.2007941 C2.01670217,12.1833753 2.01362808,12.165949 2.0110178,12.1484669 C2.00810098,12.1294204 2.00574796,12.1096949 2.00397748,12.0898018 C2.00188502,12.0658831 2.0006228,12.0424569 2.00017973,12.0190181 C2.00006128,12.0129086 2,12.0064615 2,12 L2.00017973,11.9809819 C2.00062118,11.9576287 2.00187582,11.9342879 2.00394365,11.9110058 L2,12 C2,11.9493797 2.00376119,11.8996379 2.01101934,11.8510388 C2.01365592,11.8338932 2.01671819,11.8165462 2.02024007,11.7992742 C2.0246398,11.7772539 2.02983363,11.7555635 2.03572097,11.7341604 C2.04009773,11.7185367 2.04472872,11.7031487 2.04973809,11.6878575 C2.05612249,11.6682023 2.06331574,11.6484208 2.07110396,11.6289415 C2.07819642,11.6112044 2.08567905,11.5939015 2.09367336,11.5767785 C2.10337664,11.5561086 2.11379392,11.5357061 2.12487577,11.515723 C2.13149883,11.5036056 2.13860692,11.4913869 2.14599545,11.4792912 C2.1617187,11.453725 2.17849009,11.4288693 2.19631351,11.4048407 C2.20175344,11.397397 2.20728448,11.3901576 2.21292769,11.3829777 C2.23766884,11.3515341 2.26442691,11.3213595 2.29289322,11.2928932 L9.36396103,4.22182541 C9.75448532,3.83130112 10.3876503,3.83130112 10.7781746,4.22182541 Z" id="形状结合"></path>
            </g>
        </g>
    </g>
</svg>

<svg width="24" height="24" xmlns="http://www.w3.org/2000/svg"><path d="M10.778 4.222a1 1 0 0 1 0 1.414L5.414 11H17a1 1 0 0 1 0 2H5.414l5.364 5.364a1 1 0 0 1-1.414 1.414l-7.071-7.07-.073-.083a1.005 1.005 0 0 1-.007-.008l.08.09A1.008 1.008 0 0 1 2 12.02.99.99 0 0 1 2 12v-.019c0-.023.002-.047.004-.07L2 12a1.008 1.008 0 0 1 .213-.617c.025-.031.051-.062.08-.09l7.071-7.071a1 1 0 0 1 1.414 0z" fill="#6E7585" fill-rule="nonzero"/></svg>
